X:085
T:Camptown Races
M:4/4
L:1/8
K:G
d2 d2 B2 d2 | e2 d2 B4 | B2 A6 | B2 A6 | 
d2 d2 B2 d2 | e2 d2 B4 | A2 A2 B2 A2 | G8 :|| 
G3 G B2 d2 | g8 | e3 e g2 e2 | d8 | 
d2 d2 BB dd | e2 d2 B4 | A2 A2 B2 A2 | G8 :|| 

